!!!COM: Igor (Fyodorovich) Stravinsky
!!!OTL: [T398_Str-w56p35m166-169]
**kern	**dynam	**kern	**dynam	**kern	**dynam	**kern	**dynam	**kern	**kern	**kern	**kern	**kern	**kern	**dynam	**kern	**dynam
*grp:A	*	*grp:A	*	*grp:A	*	*grp:A	*	*grp:A	*grp:A	*grp:A	*grp:A	*grp:A	*grp:A	*	*grp:B	*
*part9	*	*part8	*	*part7	*	*part6	*	*part5	*part5	*part4	*part4	*part3	*part2	*	*part1	*
*staff11	*	*staff10	*	*staff9	*	*staff8	*	*staff7	*staff6	*staff5	*staff4	*staff3	*staff2	*	*staff1	*
*I"Contrabass Solo II	*	*I"Contrabass Solo I	*	*I"Violoncello I.II.III. Solo	*	*I"Solo Viola	*	*I"Piano	*	*I"Harp	*	*I"Mandolin	*I"Flute III.	*	*I"Flute I.II.	*
*I'2.Cb. Solo	*	*I'1.Cb. Solo	*	*I'1.2.3.Vc. Solo	*	*I'Solo Vla.	*	*I'Pno.	*	*I'Hp.	*	*I'Mand.	*I'3.Fl.	*	*I'1.2.Fl.	*
*clefG2	*	*clefG2	*	*clefF4	*	*clefC3	*	*clefF4	*clefG2	*clefF4	*clefG2	*clefG2	*clefG2	*	*clefG2	*
*ITrd7c12	*	*ITrd7c12	*	*	*	*	*	*	*	*	*	*	*	*	*	*
*k[]	*	*k[]	*	*k[]	*	*k[]	*	*k[]	*k[]	*k[]	*k[]	*k[]	*k[]	*	*k[]	*
*C:	*	*C:	*	*C:	*	*C:	*	*C:	*C:	*C:	*C:	*C:	*C:	*	*C:	*
*M9/4	*	*M9/4	*	*M9/4	*	*M9/4	*	*M9/4	*M9/4	*M9/4	*M9/4	*M9/4	*M9/4	*	*M9/4	*
=1	=1	=1	=1	=1	=1	=1	=1	=1	=1	=1	=1	=1	=1	=1	=1	=1
*	*	*	*	*	*	*	*	*	*	*	*^	*	*	*	*	*
!	!	!	!	!	!	!LO:TX:t=[half]=58	!	!	!	!	!	!	!	!	!LO:DY:ed=brack	!LO:TX:t=[half]=58	!
[2.c	.	2.ryy	.	2.ryy	.	2.ryy	.	2.r	2.r	8r	4.a	]4.c	4.a	4.f	mf	2.ryy	.
.	.	.	.	.	.	.	.	.	.	8EE'L	.	.	.	.	.	.	.
.	.	.	.	.	.	.	.	.	.	8FF#X'	.	.	.	.	.	.	.
.	.	.	.	.	.	.	.	.	.	8GG'	8b	8g	8g	8e	.	.	.
.	.	.	.	.	.	.	.	.	.	8AA'	[4cc	[4c	[4f	[4d	.	.	.
.	.	.	.	.	.	.	.	.	.	8BB'J	.	.	.	.	.	.	.
!	!	!	!	!	!	!	!	!	!	!	!	!	!	!	!	!LO:TX:t=P:problem:Most Barline lines should be dotted; data has been input correctly	!
=.	=.	=.	=.	=.	=.	=.	=.	=.	=.	=.	=.	=.	=.	=.	=.	=.	=.
!	!	!LO:N:vis=1	!	!LO:N:vis=1	!	!LO:N:vis=1	!	!	!	!	!	!	!	!	!	!LO:N:vis=1	!
8c]	.	2.r	.	2.r	.	2.r	.	2.r	2.r	2.C	8cL] 8cc]	2.ryy	8fL]	2.d]	.	2.r	.
8r	.	.	.	.	.	.	.	.	.	.	8b'	.	8g'	.	.	.	.
4r	.	.	.	.	.	.	.	.	.	.	8cc'	.	8a'	.	.	.	.
.	.	.	.	.	.	.	.	.	.	.	8dd'	.	8b'	.	.	.	.
4r	.	.	.	.	.	.	.	.	.	.	8ee'	.	8cc'	.	.	.	.
.	.	.	.	.	.	.	.	.	.	.	8ff#XJ	.	8dd'J	.	.	.	.
!	!	!	!	!	!	!	!	!	!LO:TX:b:i:t=marcato	!	!	!	!	!	!	!	!
=.	=.	=.	=.	=.	=.	=.	=.	=.	=.	=.	=.	=.	=.	=.	=.	=.	=.
*	*	*	*	*	*	*	*	*	*grp:B	*grp:	*grp:B	*	*grp:B	*grp:B	*	*	*
2.r	.	2.ryy	.	2.ryy	.	2.ryy	.	2E	4e	2.r	8gg'L	2.ryy	8ee'L	4dd	.	2.ryy	.
.	.	.	.	.	.	.	.	.	.	.	8dd'J	.	8ff#X'J	.	.	.	.
.	.	.	.	.	.	.	.	.	4f#X	.	4ee	.	4gg	2c	.	.	.
.	.	.	.	.	.	.	.	[4F#X	4d	.	4aa	.	4ffn	.	.	.	.
*	*	*	*	*	*	*	*	*	*	*	*v	*v	*	*	*	*	*
=2	=2	=2	=2	=2	=2	=2	=2	=2	=2	=2	=2	=2	=2	=2	=2	=2
*	*	*	*	*	*	*	*	*	*	*	*	*^	*	*	*^	*
!	!	!	!	!	!	!	!	!	!	!	!	!	!	!	!	!LO:TX:a:B:t=I marc.	!	!LO:DY:ed=brack
2.ryy	.	2.ryy	.	2.ryy	.	2.ryy	.	4F#X]	4.c	2.r	2gg#X	2bb	2ryy	4r	.	4ee'~	2.rB	pp
.	.	.	.	.	.	.	.	2D	.	.	.	.	.	8d'	.	4d~	.	.
.	.	.	.	.	.	.	.	.	8B	.	.	.	.	8r	.	.	.	.
.	.	.	.	.	.	.	.	.	4A	.	4aa	4ccc#X	4ryy	8ee'	.	4ee'~	.	.
.	.	.	.	.	.	.	.	.	.	.	.	.	.	8r	.	.	.	.
!	!	!	!	!	!	!	!	!	!	!	!	!	!	!LO:TX:b:i:t=marc.	!	!LO:TX:b:i:t=marc.	!	!
=.	=.	=.	=.	=.	=.	=.	=.	=.	=.	=.	=.	=.	=.	=.	=.	=.	=.	="
*	*	*	*	*	*	*	*	*	*	*	*grp:A	*grp:A	*grp:A	*grp:A	*	*grp:A	*grp:A	*
!LO:N:vis=1	!	!LO:N:vis=1	!	!LO:N:vis=1	!	!LO:N:vis=1	!	!	!	!	!	!	!	!	!	!	!	!
2r	.	2r	.	2r	.	2r	.	2C	2r	8B'L	2ggn^	2ddd^	2a^	2a^	.	2ddd^	2gg^	.
.	.	.	.	.	.	.	.	.	.	8C' 8E	.	.	.	.	.	.	.	.
.	.	.	.	.	.	.	.	.	.	8D' 8Fn	.	.	.	.	.	.	.	.
.	.	.	.	.	.	.	.	.	.	8E'J 8G	.	.	.	.	.	.	.	.
=.	=.	=.	=.	=.	=.	=.	=.	=.	=.	=.	=.	=.	=.	=.	=.	=.	=.	="
!	!	!	!	!	!	!	!	!	!	!	!	!LO:T:lv	!	!	!	!	!	!
2ryy	.	2ryy	.	2ryy	.	2ryy	.	2BB	2r	8F'L 8A	2g^	[2d^	8AL	2r	.	2dd^	2g^	.
.	.	.	.	.	.	.	.	.	.	8BB'	.	.	8G	.	.	.	.	.
.	.	.	.	.	.	.	.	.	.	8C'	.	.	8A	.	.	.	.	.
.	.	.	.	.	.	.	.	.	.	8D'J	.	.	8BJ	.	.	.	.	.
=.	=.	=.	=.	=.	=.	=.	=.	=.	=.	=.	=.	=.	=.	=.	=.	=.	=.	=.
2ryy	.	2ryy	.	2ryy	.	2ryy	.	2AA	2r	8E'L	2Gn^,	2ryy	8cL	2r	.	2d^	2r	.
.	.	.	.	.	.	.	.	.	.	8F'	.	.	8d	.	.	.	.	.
.	.	.	.	.	.	.	.	.	.	8G'	.	.	8e	.	.	.	.	.
.	.	.	.	.	.	.	.	.	.	8A',J	.	.	8f#XJ,	.	.	.	.	.
*	*	*	*	*	*	*	*	*	*	*	*	*v	*v	*	*	*v	*v	*
!!pagebreak:original
*	*	*	*	*	*	*	*	*	*	*clefG2	*	*	*	*	*	*
=3	=3	=3	=3	=3	=3	=3	=3	=3	=3	=3	=3	=3	=3	=3	=3	=3
*	*	*	*	*	*	*	*	*	*	*grp:B	*grp:B	*grp:B	*grp:B	*	*	*
*M8/4	*	*M8/4	*	*M8/4	*	*M8/4	*	*M8/4	*M8/4	*M8/4	*M8/4	*M8/4	*M8/4	*	*M8/4	*
!	!	!LO:TX:b:i:t=comeprima	!	!	!	!	!	!	!	!	!	!	!	!	!	!
!LO:TX:b:i:t=comeprima	!	!LO:TX:a:t=harm. real pitch	!	!LO:TX:a:i:t=come prima	!	!LO:TX:a:i:t=come prima	!	!	!	!	!	!	!	!	!	!
4r	.	4r	.	4r	.	4r	.	2.ryy	2.ryy	4r	4r	2.r	2.r	.	4r	.
*	*	*	*	*	*	*	*	*	*	*	*	*	*	*	*8va	*
!	!	!	!	!	!LO:DY:ed=brack	!	!LO:DY:ed=brack	!	!	!	!	!	!	!	!	!
!LO:TX:a:t=harm. real pitch	!LO:DY:ed=brack	!	!LO:DY:ed=brack	!	!LO:DY:t=poco %s	!	!LO:DY:t=poco %s	!	!	!	!	!	!	!	!	!
[2c'~	fp	[2g'~	fp	[2CC'~ [2EE [2GG	sfp	[2C'~	sfp	.	.	4r	4r	.	.	.	[2ccco [2eeeo	pp
.	.	.	.	.	.	.	.	.	.	4f#oX	4f#X	.	.	.	.	.
!	!	!	!	!	!	!	!	!	!	!	!LO:TX:b:i:t=come prima	!	!	!	!	!
=.	=.	=.	=.	=.	=.	=.	=.	=.	=.	=.	=.	=.	=.	=.	=.	=.
!	!	!	!	!	!	!	!	!LO:N:vis=1	!LO:N:vis=1	!	!	!	!	!	!	!
4c]	.	4g]	.	4CC] 4EE] 4GG]	.	4C]	.	2r	2r	8r	8gL	2r	2r	.	4ccco] 4eeeo]	.
.	.	.	.	.	.	.	.	.	.	8f#	8f#J	.	.	.	.	.
[4c'~	.	[4e'~	.	[4EE'~ [4GG [4C	.	[4E'~	.	.	.	4r	4g	.	.	.	[4ggo [4ccco	.
!	!	!	!	!	!	!	!	!	!	!	!	!LO:TX:b:i:t=come prima	!	!	!	!
=.	=.	=.	=.	=.	=.	=.	=.	=.	=.	=.	=.	=.	=.	=.	=.	=.
2c]	.	2e]	.	2EE] 2GG] 2C]	.	2E]	.	2.ryy	2.ryy	4eo	8e'L	4B	4r	.	2gg] 2ccc]	.
.	.	.	.	.	.	.	.	.	.	.	8fn'	.	.	.	.	.
!	!	!	!	!	!	!	!	!	!	!	!	!	!LO:TX:b:i:t=come prima	!	!	!
.	.	.	.	.	.	.	.	.	.	4go	8g'	8cL	8cL	.	.	.
.	.	.	.	.	.	.	.	.	.	.	8a'	8BJ	8bJ	.	.	.
!LO:TX:b:i:t=sim.	!	!LO:TX:b:i:t=sim.	!	!LO:TX:b:i:t=sim.	!	!LO:TX:b:i:t=sim.	!	!	!	!	!	!	!	!	!	!
[4c	.	[4e	.	[4EE [4GG [4C	.	[4E	.	.	.	4Go	8g'	4c	4c	.	[4ggo [4ccco	.
.	.	.	.	.	.	.	.	.	.	.	8f#X'J	.	.	.	.	.
=4	=4	=4	=4	=4	=4	=4	=4	=4	=4	=4	=4	=4	=4	=4	=4	=4
*M9/4	*	*M9/4	*	*M9/4	*	*M9/4	*	*M9/4	*M9/4	*M9/4	*M9/4	*M9/4	*M9/4	*	*M9/4	*
*	*	*	*	*^	*	*	*	*	*	*	*^	*	*	*	*^	*
4c]	.	4e]	.	4EE] 4GG] 4C]	4ryy	.	4E]	.	2.ryy	2.ryy	4go	4.g	4.ryy	8AL	8r	.	4gg] 4ccc]	4ryy	.
.	.	.	.	.	.	.	.	.	.	.	.	.	.	8B-X	8b-XL	.	.	.	.
2c	.	2g	.	2CC 2EE 2GG	2ryy	.	2C	.	.	.	4r	.	.	8c	(8c	.	2ccco 2eeeo	2ryy	.
.	.	.	.	.	.	.	.	.	.	.	.	8f#X	8ryy	8d	8d	.	.	.	.
.	.	.	.	.	.	.	.	.	.	.	[4go	[4g	4ryy	8c	8c)	.	.	.	.
.	.	.	.	.	.	.	.	.	.	.	.	.	.	8BnJ	8bnJ	.	.	.	.
=.	=.	=.	=.	=.	=.	=.	=.	=.	=.	=.	=.	=.	=.	=.	=.	=.	=.	="	="
!	!	!	!	!	!	!	!	!	!LO:N:vis=1	!LO:N:vis=1	!	!	!	!	!	!	!	!	!
2c	.	2f	.	2DD 2FF 2BB	2ryy	.	2D	.	2.r	2.r	4g]	4g]	4ryy	4.c	4.c	.	2bbo 2dddo	2ryy	.
.	.	.	.	.	.	.	.	.	.	.	4a	4aa	4ryy	.	.	.	.	.	.
.	.	.	.	.	.	.	.	.	.	.	.	.	.	8B	8b	.	.	.	.
[4c	.	[4e	.	[4EE [4GG [4C	4ryy	.	[4E	.	.	.	[4fn	4ffn	4ryy	[4cc	[4c	.	[4ccco	[4ggo	.
=.	=.	=.	=.	=.	=.	=.	=.	=.	=.	=.	=.	=.	=.	=.	=.	=.	=.	="	="
4c]	.	4e]	.	4EE] 4GG] 4C]	4ryy	.	4E]	.	2.ryy	2.ryy	8fL]	4.ee	8r	4cc]	4c]	.	4ccc]	4gg]	.
.	.	.	.	.	.	.	.	.	.	.	8e'	.	8g'L	.	.	.	.	.	.
[2c	.	2f	.	2FF 2C	2FF	.	2F	.	.	.	8d'	.	8a'	4dd	4dd	.	2ccco	4re	.
.	.	.	.	.	.	.	.	.	.	.	[8cJ	8dd	8b'	.	.	.	.	.	.
.	.	.	.	.	.	.	.	.	.	.	4c_	4cc	8a'	4b-X	4b-X	.	.	4re	.
.	.	.	.	.	.	.	.	.	.	.	.	.	8g'J	.	.	.	.	.	.
*	*	*	*	*	*	*	*	*	*	*	*	*	*	*	*	*	*X8va	*	*
*	*	*	*	*v	*v	*	*	*	*	*	*	*v	*v	*	*	*	*v	*v	*
=	=	=	=	=	=	=	=	=	=	=	=	=	=	=	=	=
*-	*-	*-	*-	*-	*-	*-	*-	*-	*-	*-	*-	*-	*-	*-	*-	*-
!!!system-decoration: [(s1,s2)][(s3)][({(s4,s5)})][({(s6,s7)})][(s8,s9,s10,s11
!!!EED: Raphael Laurindo
!!!EEV: 2022/03/21
!!!EED2: Jason Lee
!!!EEV2: 2022/05/10
!!!EED3: Bryan Bell
!!!EEV3: 2023/05/29
